symbols/web/screen_share/materialsymbolsrounded/screen_share_wght600_40px.svg

<svg xmlns="http://www.w3.org/2000/svg" height="40" width="40"><path d="M15.083 23.833q.667 0 1.105-.437.437-.438.437-1.104v-2.209q0-.833.563-1.395.562-.563 1.395-.563h3.209v1q0 .625.583.875t1.042-.208l2.5-2.542q.083-.083.291-.667 0-.125-.291-.666l-2.5-2.542q-.459-.458-1.042-.208t-.583.875v1h-3.209q-2.125 0-3.583 1.458-1.458 1.458-1.458 3.583v2.209q0 .666.437 1.104.438.437 1.104.437Zm-8.75 6.834q-1.5 0-2.583-1.084Q2.667 28.5 2.667 27V8q0-1.5 1.083-2.583 1.083-1.084 2.583-1.084h27.334q1.5 0 2.583 1.084Q37.333 6.5 37.333 8v19q0 1.5-1.083 2.583-1.083 1.084-2.583 1.084Zm0-3.667h27.334V8H6.333v19Zm-3.708 8.958q-.667 0-1.125-.437-.458-.438-.458-1.104 0-.667.458-1.105.458-.437 1.125-.437h34.75q.667 0 1.125.437.458.438.458 1.105 0 .666-.458 1.104-.458.437-1.125.437ZM6.333 8v19V8Z"/></svg>

<svg xmlns="http://www.w3.org/2000/svg" height="40" width="40"><path d="M15.083 23.833Q15.75 23.833 16.188 23.396Q16.625 22.958 16.625 22.292V20.083Q16.625 19.25 17.188 18.688Q17.75 18.125 18.583 18.125H21.792V19.125Q21.792 19.75 22.375 20Q22.958 20.25 23.417 19.792L25.917 17.25Q26 17.167 26.208 16.583Q26.208 16.458 25.917 15.917L23.417 13.375Q22.958 12.917 22.375 13.167Q21.792 13.417 21.792 14.042V15.042H18.583Q16.458 15.042 15 16.5Q13.542 17.958 13.542 20.083V22.292Q13.542 22.958 13.979 23.396Q14.417 23.833 15.083 23.833ZM6.333 30.667Q4.833 30.667 3.75 29.583Q2.667 28.5 2.667 27V8Q2.667 6.5 3.75 5.417Q4.833 4.333 6.333 4.333H33.667Q35.167 4.333 36.25 5.417Q37.333 6.5 37.333 8V27Q37.333 28.5 36.25 29.583Q35.167 30.667 33.667 30.667ZM6.333 27H33.667Q33.667 27 33.667 27Q33.667 27 33.667 27V8Q33.667 8 33.667 8Q33.667 8 33.667 8H6.333Q6.333 8 6.333 8Q6.333 8 6.333 8V27Q6.333 27 6.333 27Q6.333 27 6.333 27ZM2.625 35.958Q1.958 35.958 1.5 35.521Q1.042 35.083 1.042 34.417Q1.042 33.75 1.5 33.312Q1.958 32.875 2.625 32.875H37.375Q38.042 32.875 38.5 33.312Q38.958 33.75 38.958 34.417Q38.958 35.083 38.5 35.521Q38.042 35.958 37.375 35.958ZM6.333 8Q6.333 8 6.333 8Q6.333 8 6.333 8V27Q6.333 27 6.333 27Q6.333 27 6.333 27Q6.333 27 6.333 27Q6.333 27 6.333 27V8Q6.333 8 6.333 8Q6.333 8 6.333 8Z"/></svg>
